X: 28221
T: Mrs. Dundas McQueen
R: reel
M: 4/4
K: Amajor
|:ed|cAec dBfd|cAec (3efg ae|cAec dBfd|cA (3cde f2:|
|:eg|aece fBBg|aece f2 eg|aece fBBd|cA (3cde f2:|

